X: 18447
T: Hurlock's
R: reel
M: 4/4
K: Gmajor
|:GA|BABG D2 GA|BABd e2 de|gfgd e<g GA|B2 A2 A2 GA|
BABG D2 GA|BABd e2 de|gfgd e<g GA|B2 G2 G2:|
|:Bd|edBd gdBd|fdBd G2 GA|BABG DEGA|
[1 B2 A2 A2 Bd|edBd gdBd|edBd G2 GA|BABG DEGA|B2 G2 G2:|
[2 B2 A2 A2 GA|BABG D2 GA|BABd e2 de|gfgd e<g GA|B2 G2 G2||

